icons/svg/office/insurance.svg

<?xml version="1.0" encoding="UTF-8" standalone="no"?>
<!-- Created with Inkscape (http://www.inkscape.org/) -->

<svg
   xmlns:dc="http://purl.org/dc/elements/1.1/"
   xmlns:cc="http://creativecommons.org/ns#"
   xmlns:rdf="http://www.w3.org/1999/02/22-rdf-syntax-ns#"
   xmlns:svg="http://www.w3.org/2000/svg"
   xmlns="http://www.w3.org/2000/svg"
   xmlns:sodipodi="http://sodipodi.sourceforge.net/DTD/sodipodi-0.dtd"
   xmlns:inkscape="http://www.inkscape.org/namespaces/inkscape"
   version="1.0"
   width="580"
   height="580"
   id="svg2"
   sodipodi:version="0.32"
   inkscape:version="0.91 r"
   sodipodi:docname="insurance.svg"
   inkscape:output_extension="org.inkscape.output.svg.inkscape">
  <metadata
     id="metadata10">
    <rdf:RDF>
      <cc:Work
         rdf:about="">
        <dc:format>image/svg+xml</dc:format>
        <dc:type
           rdf:resource="http://purl.org/dc/dcmitype/StillImage" />
        <cc:license
           rdf:resource="http://web.resource.org/cc/PublicDomain" />
        <dc:language>en</dc:language>
        <dc:title />
      </cc:Work>
    </rdf:RDF>
  </metadata>
  <sodipodi:namedview
     inkscape:window-height="1004"
     inkscape:window-width="1920"
     inkscape:pageshadow="2"
     inkscape:pageopacity="0.0"
     guidetolerance="10.0"
     gridtolerance="10.0"
     objecttolerance="10.0"
     borderopacity="1.0"
     bordercolor="#666666"
     pagecolor="#ffffff"
     id="base"
     showgrid="false"
     inkscape:zoom="1"
     inkscape:cx="347.37642"
     inkscape:cy="261.00114"
     inkscape:window-x="1680"
     inkscape:window-y="0"
     inkscape:current-layer="svg2"
     inkscape:window-maximized="1" />
  <defs
     id="defs4">
    <inkscape:perspective
       sodipodi:type="inkscape:persp3d"
       inkscape:vp_x="0 : 290 : 1"
       inkscape:vp_y="0 : 1000 : 0"
       inkscape:vp_z="580 : 290 : 1"
       inkscape:persp3d-origin="290 : 193.33333 : 1"
       id="perspective12" />
  </defs>
  <g
     id="g1327">
    <path
       d="M 66.275,1.768 C 24.94,1.768 1.704,23.139 1.704,66.804 L 1.704,516.927 C 1.704,557.771 22.598,579.156 63.896,579.156 L 515.92,579.156 C 557.227,579.156 578.149,558.84 578.149,516.927 L 578.149,66.804 C 578.149,24.203 557.227,1.768 514.627,1.768 C 514.624,1.768 66.133,1.625 66.275,1.768 z"
       style="fill:#111111;stroke:#eeeeee;stroke-width:3.40799999"
       id="path1329" />
  </g>
  <path
     inkscape:connector-curvature="0"
     d="M 564.80515,182.81766 C 564.07425,96.461376 495.35535,33.931282 400.87029,33.931282 c -94.99738,0 -163.94169,63.19952 -163.94169,150.279888 0,3.03292 2.00145,5.71063 4.91825,6.55767 0.63528,0.18444 1.27737,0.27323 1.91265,0.27323 2.28835,0 4.48791,-1.15441 5.76528,-3.1627 0.15029,-0.23908 15.75891,-24.1609 48.88195,-24.1609 18.23852,0 35.21331,9.0851 45.41185,24.29752 2.53426,3.79115 9.1056,3.79115 11.63987,0 10.19853,-15.21242 27.17332,-24.29752 45.41184,-24.29752 18.23852,0 35.21331,9.0851 45.41185,24.29752 2.53426,3.79115 9.1056,3.79115 11.63987,0 10.19853,-15.21242 27.17332,-24.29752 45.41184,-24.29752 27.46706,0 49.26447,24.7142 49.48306,24.96012 1.28422,1.47547 3.09441,2.30201 4.96608,2.35666 3.70235,0.0887 7.16561,-2.93729 7.16561,-6.82408 0,-0.47816 -0.0477,-0.94949 -0.14345,-1.39351 z"
     id="path7"
     style="fill:#ffffff;fill-opacity:1;stroke:none" />
  <line
     style="fill:none;stroke:#ffffff;stroke-width:20.29678345;stroke-linecap:round;stroke-miterlimit:10;stroke-dasharray:none;stroke-opacity:1"
     stroke-miterlimit="10"
     x1="400.9386"
     y1="125.47276"
     x2="400.9386"
     y2="17.807487"
     id="line3" />
  <path
     inkscape:connector-curvature="0"
     style="color:#000000;clip-rule:nonzero;display:inline;overflow:visible;visibility:visible;opacity:1;isolation:auto;mix-blend-mode:normal;color-interpolation:sRGB;color-interpolation-filters:linearRGB;solid-color:#000000;solid-opacity:1;fill:#ffffff;fill-opacity:1;fill-rule:nonzero;stroke:none;stroke-width:25;stroke-linecap:round;stroke-linejoin:round;stroke-miterlimit:4;stroke-dasharray:none;stroke-dashoffset:0;stroke-opacity:1;marker:none;color-rendering:auto;image-rendering:auto;shape-rendering:auto;text-rendering:auto;enable-background:accumulate"
     d="m 151.9707,306.31641 c -15.16319,0 -28.17493,9.21233 -33.74414,22.34765 l -2.89258,35.31446 0,38.75586 c 0,4.71422 0.89771,9.21518 2.51954,13.35546 l -79.132817,0 0,26.78907 0,10.71679 0,92.875 24.779038,0 0,-92.875 254.074739,0 0,92.875 24.77513,0 0,-92.875 0.002,0 0,-37.50586 -79.13281,0 c 1.62182,-4.14028 2.51953,-8.64126 2.51953,-13.35546 l 0,-38.75391 -2.89258,-35.31836 c -5.5692,-13.13175 -18.58094,-22.3457 -33.74414,-22.3457 l -77.13086,0 z m -7.71289,49.17382 8.67774,0 0,60.59961 -8.67774,0 z m 83.87891,0 8.67773,0 0,60.59961 -8.67773,0 z"
     id="path4178"
     sodipodi:nodetypes="sccsccccccccccccccsccscscccccccccc" />
  <path
     inkscape:connector-curvature="0"
     style="color:#000000;clip-rule:nonzero;display:inline;overflow:visible;visibility:visible;opacity:1;isolation:auto;mix-blend-mode:normal;color-interpolation:sRGB;color-interpolation-filters:linearRGB;solid-color:#000000;solid-opacity:1;fill:#ffffff;fill-opacity:1;fill-rule:nonzero;stroke:none;stroke-width:25;stroke-linecap:round;stroke-linejoin:round;stroke-miterlimit:4;stroke-dasharray:none;stroke-dashoffset:0;stroke-opacity:1;marker:none;color-rendering:auto;image-rendering:auto;shape-rendering:auto;text-rendering:auto;enable-background:accumulate"
     d="m 190.53711,201.07227 c -24.76076,0 -44.83397,20.07127 -44.83399,44.83203 0,24.76075 20.07323,44.83203 44.83399,44.83203 24.76076,0 44.83203,-20.07128 44.83203,-44.83203 0,-24.76076 -20.07127,-44.83203 -44.83203,-44.83203 z"
     id="path4176" />
  <rect
     style="color:#000000;clip-rule:nonzero;display:inline;overflow:visible;visibility:visible;opacity:0;isolation:auto;mix-blend-mode:normal;color-interpolation:sRGB;color-interpolation-filters:linearRGB;solid-color:#000000;solid-opacity:1;fill:#ffffff;fill-opacity:1;fill-rule:nonzero;stroke:none;stroke-width:29;stroke-linecap:round;stroke-linejoin:round;stroke-miterlimit:10;stroke-dasharray:none;stroke-dashoffset:0;stroke-opacity:1;marker:none;color-rendering:auto;image-rendering:auto;shape-rendering:auto;text-rendering:auto;enable-background:accumulate"
     id="rect4162"
     width="112.5"
     height="178"
     x="608.5"
     y="263.5" />
  <ellipse
     style="color:#000000;clip-rule:nonzero;display:inline;overflow:visible;visibility:visible;opacity:0;isolation:auto;mix-blend-mode:normal;color-interpolation:sRGB;color-interpolation-filters:linearRGB;solid-color:#000000;solid-opacity:1;fill:#ffffff;fill-opacity:1;fill-rule:nonzero;stroke:none;stroke-width:29;stroke-linecap:round;stroke-linejoin:round;stroke-miterlimit:10;stroke-dasharray:none;stroke-dashoffset:0;stroke-opacity:1;marker:none;color-rendering:auto;image-rendering:auto;shape-rendering:auto;text-rendering:auto;enable-background:accumulate"
     id="path4164"
     cx="462.75"
     cy="372.25"
     rx="234.25"
     ry="103.75" />
  <path
     style="fill:none;fill-rule:evenodd;stroke:#ffffff;stroke-width:25;stroke-linecap:round;stroke-linejoin:miter;stroke-miterlimit:4;stroke-dasharray:none;stroke-opacity:1"
     d="m 401.63665,196.16843 0,208.46909 c 0,0 7.19456,42.37475 47.72971,34.29467 40.53515,-8.08007 34.29468,-63.28605 34.29468,-63.28605"
     id="path4166"
     inkscape:connector-curvature="0"
     sodipodi:nodetypes="cczc" />
</svg>

<svg width="580" height="580" viewBox="0 0 580 580" fill="none" xmlns="http://www.w3.org/2000/svg">
<g clip-path="url(#clip0)">
<path d="M66.2751 1.7679C24.9401 1.7679 1.7041 23.1389 1.7041 66.8039V516.927C1.7041 557.771 22.5981 579.156 63.8961 579.156H515.92C557.227 579.156 578.149 558.84 578.149 516.927V66.8039C578.149 24.2029 557.227 1.7679 514.627 1.7679C514.624 1.7679 66.1331 1.6249 66.2751 1.7679Z" fill="#111111" stroke="#EEEEEE" stroke-width="3.408"/>
<path d="M564.805 182.818C564.074 96.4615 495.355 33.9314 400.87 33.9314C305.873 33.9314 236.929 97.1309 236.929 184.211C236.929 187.244 238.93 189.922 241.847 190.769C242.482 190.953 243.124 191.042 243.76 191.042C246.048 191.042 248.248 189.888 249.525 187.879C249.675 187.64 265.284 163.719 298.407 163.719C316.645 163.719 333.62 172.804 343.819 188.016C346.353 191.807 352.924 191.807 355.459 188.016C365.657 172.804 382.632 163.719 400.87 163.719C419.109 163.719 436.084 172.804 446.282 188.016C448.817 191.807 455.388 191.807 457.922 188.016C468.121 172.804 485.095 163.719 503.334 163.719C530.801 163.719 552.598 188.433 552.817 188.679C554.101 190.154 555.911 190.981 557.783 191.035C561.485 191.124 564.949 188.098 564.949 184.211C564.949 183.733 564.901 183.262 564.805 182.818V182.818Z" fill="white"/>
<path d="M400.938 125.473V17.8074" stroke="white" stroke-width="20.2968" stroke-miterlimit="10" stroke-linecap="round"/>
<path d="M151.971 306.316C136.808 306.316 123.796 315.529 118.227 328.664L115.334 363.979V402.734C115.334 407.449 116.232 411.95 117.854 416.09H38.7207V442.879V453.596V546.471H63.4997V453.596H317.574V546.471H342.35V453.596H342.352V416.09H263.219C264.841 411.95 265.738 407.449 265.738 402.734V363.98L262.846 328.662C257.277 315.53 244.265 306.316 229.102 306.316H151.971H151.971ZM144.258 355.49H152.936V416.09H144.258V355.49ZM228.137 355.49H236.814V416.09H228.137V355.49Z" fill="white"/>
<path d="M190.537 201.072C165.776 201.072 145.703 221.144 145.703 245.904C145.703 270.665 165.776 290.736 190.537 290.736C215.298 290.736 235.369 270.665 235.369 245.904C235.369 221.144 215.298 201.072 190.537 201.072Z" fill="white"/>
<path d="M401.637 196.168V404.638C401.637 404.638 408.831 447.012 449.366 438.932C489.902 430.852 483.661 375.646 483.661 375.646" stroke="white" stroke-width="25" stroke-linecap="round"/>
</g>
<defs>
<clipPath id="clip0">
<path d="M0 0H580V580H0V0Z" fill="white"/>
</clipPath>
</defs>
</svg>
